SVG/ubuntu.svg

<?xml version="1.0" encoding="UTF-8" standalone="no"?>
<svg
   xmlns:dc="http://purl.org/dc/elements/1.1/"
   xmlns:cc="http://creativecommons.org/ns#"
   xmlns:rdf="http://www.w3.org/1999/02/22-rdf-syntax-ns#"
   xmlns:svg="http://www.w3.org/2000/svg"
   xmlns="http://www.w3.org/2000/svg"
   xmlns:xlink="http://www.w3.org/1999/xlink"
   xmlns:sodipodi="http://sodipodi.sourceforge.net/DTD/sodipodi-0.dtd"
   xmlns:inkscape="http://www.inkscape.org/namespaces/inkscape"
   width="14"
   viewBox="0 0 3.9511112 3.9511112"
   height="14"
   id="svg2"
   version="1.1"
   inkscape:version="0.91 r13725"
   sodipodi:docname="ubuntu.svg"
   inkscape:export-filename="/home/josh/Programs/Icons/Unixporn/subreddit/Images/SVG/distributor-logo-ubuntu.png"
   inkscape:export-xdpi="375"
   inkscape:export-ydpi="375">
  <metadata
     id="metadata203">
    <rdf:RDF>
      <cc:Work
         rdf:about="">
        <dc:format>image/svg+xml</dc:format>
        <dc:type
           rdf:resource="http://purl.org/dc/dcmitype/StillImage" />
        <dc:title></dc:title>
      </cc:Work>
    </rdf:RDF>
  </metadata>
  <sodipodi:namedview
     pagecolor="#ffffff"
     bordercolor="#666666"
     borderopacity="1"
     objecttolerance="10"
     gridtolerance="10"
     guidetolerance="10"
     inkscape:pageopacity="0"
     inkscape:pageshadow="2"
     inkscape:window-width="1580"
     inkscape:window-height="840"
     id="namedview201"
     showgrid="true"
     inkscape:zoom="6.9532167"
     inkscape:cx="-29.694777"
     inkscape:cy="25.249117"
     inkscape:window-x="10"
     inkscape:window-y="50"
     inkscape:window-maximized="0"
     inkscape:current-layer="svg2" />
  <defs
     id="defs4">
    <inkscape:path-effect
       effect="spiro"
       id="path-effect3957"
       is_visible="true" />
    <inkscape:path-effect
       effect="spiro"
       id="path-effect3182"
       is_visible="true" />
    <clipPath
       id="clipPath6">
      <rect
         height="208.57001"
         y="1580.9301"
         x="-830"
         width="477.14001"
         id="rect8"
         style="fill:#ffff00" />
    </clipPath>
    <clipPath
       id="clipPath10">
      <rect
         height="208.57001"
         y="1580.9301"
         x="-830"
         width="477.14001"
         id="rect12"
         style="fill:#ffff00" />
    </clipPath>
    <clipPath
       id="clipPath14">
      <rect
         height="208.57001"
         y="1580.9301"
         x="-830"
         width="477.14001"
         id="rect16"
         style="fill:#ffff00" />
    </clipPath>
    <clipPath
       id="clipPath18">
      <rect
         height="208.57001"
         y="1580.9301"
         x="-830"
         width="477.14001"
         id="rect20"
         style="fill:#ffff00" />
    </clipPath>
    <clipPath
       id="clipPath22">
      <rect
         transform="matrix(0.99975,-0.02255,0.02255,0.99975,0,0)"
         height="240.87"
         y="780.64001"
         x="294.92999"
         width="357.87"
         id="rect24"
         style="fill:#ff0000" />
    </clipPath>
    <clipPath
       id="clipPath26">
      <rect
         height="195"
         y="857.53998"
         width="301.42999"
         id="rect28"
         x="0"
         style="fill:#ffffff" />
    </clipPath>
    <clipPath
       id="clipPath30">
      <rect
         height="208.57001"
         y="1580.9301"
         x="-830"
         width="477.14001"
         id="rect32"
         style="fill:#ffff00" />
    </clipPath>
    <clipPath
       id="clipPath34">
      <rect
         height="30.01"
         y="977.09003"
         x="276.37"
         width="79.480003"
         id="rect36"
         style="fill:#e20a17" />
    </clipPath>
    <clipPath
       id="clipPath38">
      <rect
         transform="matrix(0.93742901,0.34817646,-0.34817646,0.93742901,0,0)"
         height="37.48"
         y="0.064000003"
         x="8.2080002"
         width="506.45999"
         id="rect40"
         style="fill:#162d50" />
    </clipPath>
    <clipPath
       id="clipPath42">
      <rect
         transform="matrix(0.999992,0.00399993,-0.00399993,0.999992,0,0)"
         height="318.39999"
         y="758.66998"
         x="218.89999"
         width="357.38"
         id="rect44"
         style="fill:#ffffff" />
    </clipPath>
    <clipPath
       id="clipPath46">
      <rect
         transform="matrix(0.999992,0.00399993,-0.00399993,0.999992,0,0)"
         height="318.39999"
         y="758.66998"
         x="218.89999"
         width="357.38"
         id="rect48"
         style="fill:#ffffff" />
    </clipPath>
    <clipPath
       id="clipPath50">
      <rect
         transform="matrix(0.93742901,0.34817646,-0.34817646,0.93742901,0,0)"
         height="37.48"
         y="0.064000003"
         x="8.2080002"
         width="506.45999"
         id="rect52"
         style="fill:#162d50" />
    </clipPath>
    <clipPath
       id="clipPath54">
      <rect
         height="208.57001"
         y="1580.9301"
         x="-830"
         width="477.14001"
         id="rect56"
         style="fill:#ffff00" />
    </clipPath>
    <clipPath
       id="clipPath58">
      <rect
         transform="matrix(0.999942,0.01077022,-0.01077022,0.999942,0,0)"
         height="235.88"
         y="804.23999"
         x="221.39"
         width="350.45999"
         id="rect60" />
    </clipPath>
    <clipPath
       id="clipPath62">
      <rect
         transform="matrix(0.999996,0.00282848,-0.00282848,0.999996,0,0)"
         height="279.03"
         y="793.52002"
         x="257.32001"
         width="287.42999"
         id="rect64"
         style="fill:#ffffff" />
    </clipPath>
    <clipPath
       id="clipPath66">
      <rect
         height="195"
         y="0.059999999"
         width="301.42999"
         id="rect68"
         x="0"
         style="fill:#ffffff" />
    </clipPath>
    <clipPath
       id="clipPath70">
      <rect
         height="195"
         y="857.53998"
         width="301.42999"
         id="rect72"
         x="0"
         style="fill:#ffffff" />
    </clipPath>
    <path
       clip-path="url(#2)"
       id="0"
       d="m 699.2857,672.93231 a 40.71429,40.71429 0 1 1 -81.42858,0 40.71429,40.71429 0 1 1 81.42858,0 z"
       inkscape:connector-curvature="0"
       style="fill:#44aa00" />
    <clipPath
       id="clipPath75">
      <use
         xlink:href="#0"
         transform="matrix(4.3233,0,0,4.3233,-2450.68,-2667.55)"
         id="use77"
         x="0"
         y="0"
         width="100%"
         height="100%" />
    </clipPath>
    <clipPath
       id="clipPath79">
      <rect
         transform="matrix(0.88741602,0.46096942,-0.46096942,0.88741602,0,0)"
         height="41.389999"
         y="815.73999"
         x="448.12"
         width="63.987"
         id="rect81"
         style="fill:#ffffff" />
    </clipPath>
    <clipPath
       id="clipPath83">
      <rect
         height="195"
         y="857.53998"
         width="301.42999"
         id="rect85"
         x="0"
         style="fill:#ffffff" />
    </clipPath>
    <clipPath
       id="clipPath87">
      <rect
         height="208.57001"
         y="1580.9301"
         x="-830"
         width="477.14001"
         id="rect89"
         style="fill:#ffff00" />
    </clipPath>
    <clipPath
       id="clipPath91">
      <rect
         height="208.57001"
         y="1580.9301"
         x="-830"
         width="477.14001"
         id="rect93"
         style="fill:#ffff00" />
    </clipPath>
    <clipPath
       id="clipPath95">
      <rect
         height="208.57001"
         y="1580.9301"
         x="-830"
         width="477.14001"
         id="rect97"
         style="fill:#ffff00" />
    </clipPath>
    <clipPath
       id="clipPath99">
      <rect
         height="208.57001"
         y="1580.9301"
         x="-830"
         width="477.14001"
         id="rect101"
         style="fill:#ffff00" />
    </clipPath>
    <clipPath
       id="clipPath103">
      <rect
         height="208.57001"
         y="1580.9301"
         x="-830"
         width="477.14001"
         id="rect105"
         style="fill:#ffff00" />
    </clipPath>
    <clipPath
       id="clipPath107">
      <use
         xlink:href="#0"
         id="use109"
         x="0"
         y="0"
         width="100%"
         height="100%" />
    </clipPath>
    <clipPath
       id="clipPath111">
      <rect
         height="208.57001"
         y="1580.9301"
         x="-830"
         width="477.14001"
         id="rect113"
         style="fill:#ffff00" />
    </clipPath>
    <path
       id="1"
       d="m 699.2857,672.93231 a 40.71429,40.71429 0 1 1 -81.42858,0 40.71429,40.71429 0 1 1 81.42858,0 z"
       inkscape:connector-curvature="0"
       style="fill:#44aa00" />
    <clipPath
       id="2">
      <use
         xlink:href="#1"
         id="use117"
         x="0"
         y="0"
         width="100%"
         height="100%" />
    </clipPath>
    <clipPath
       id="clipPath119">
      <use
         transform="matrix(4.3233,0,0,4.3233,-2450.68,-2667.55)"
         xlink:href="#1"
         id="use121"
         x="0"
         y="0"
         width="100%"
         height="100%" />
    </clipPath>
    <linearGradient
       gradientUnits="userSpaceOnUse"
       x2="0"
       y2="40"
       y1="280"
       xlink:href="#4"
       id="3"
       gradientTransform="matrix(0.175,0,0,0.175,302.79999,215.99997)" />
    <linearGradient
       id="4">
      <stop
         stop-color="#151515"
         id="stop125" />
      <stop
         stop-color="#222"
         offset="1"
         id="stop127" />
    </linearGradient>
    <linearGradient
       gradientUnits="userSpaceOnUse"
       x2="0"
       y2="90"
       y1="230"
       xlink:href="#4"
       id="5"
       gradientTransform="matrix(0.375,0,0,0.375,298,16)" />
    <linearGradient
       gradientUnits="userSpaceOnUse"
       x2="0"
       y2="90"
       y1="230"
       xlink:href="#4"
       id="6"
       gradientTransform="matrix(0.25,0,0,0.25,299.99999,131.99999)" />
    <clipPath
       id="clipPath131">
      <rect
         height="20"
         rx="4"
         y="78"
         x="434"
         width="20"
         id="rect133"
         style="color:#bebebe" />
    </clipPath>
    <clipPath
       id="clipPath135">
      <rect
         height="22"
         rx="4"
         y="77"
         x="433"
         width="22"
         id="rect137"
         style="color:#bebebe" />
    </clipPath>
    <clipPath
       id="clipPath139">
      <rect
         height="22"
         rx="5"
         y="77"
         x="433"
         width="22"
         id="rect141"
         style="color:#bebebe" />
    </clipPath>
    <clipPath
       id="clipPath143">
      <rect
         height="30"
         rx="6"
         y="29"
         x="433"
         width="30"
         id="rect145"
         style="color:#bebebe" />
    </clipPath>
    <clipPath
       id="clipPath147">
      <rect
         transform="matrix(0,-1,1,0,0,0)"
         height="60"
         rx="12.5"
         y="142"
         x="306"
         width="60"
         id="rect149"
         style="color:#bebebe;fill:url(#6)" />
    </clipPath>
    <clipPath
       id="clipPath151">
      <rect
         height="90"
         rx="18.75"
         y="31"
         x="307"
         width="90"
         id="rect153"
         style="color:#bebebe;fill:url(#5)" />
    </clipPath>
    <clipPath
       id="clipPath155">
      <rect
         height="30"
         rx="4"
         y="29"
         x="433"
         width="30"
         id="rect157"
         style="color:#bebebe;opacity:0.2;fill:#6d6d6d" />
    </clipPath>
    <clipPath
       id="clipPath159">
      <rect
         height="22"
         rx="3"
         y="77"
         x="433"
         width="22"
         id="rect161"
         style="color:#bebebe;opacity:0.2;fill:#6d6d6d" />
    </clipPath>
    <clipPath
       id="clipPath163">
      <path
         d="m 144,70 c -49.705627,0 -90,40.29437 -90,90 0,49.70563 40.294373,90 90,90 49.70563,0 90,-40.29437 90,-90 0,-49.70563 -40.29437,-90 -90,-90 z m 0,32.1875 c 32.03251,0 58,25.96748 58,58 0,32.03252 -25.96749,58 -58,58 -32.03251,0 -58,-25.96748 -58,-58 0,-32.03252 25.96749,-58 58,-58 z"
         id="path165"
         inkscape:connector-curvature="0" />
    </clipPath>
    <clipPath
       id="clipPath167">
      <rect
         height="16"
         rx="3"
         y="116"
         x="432"
         width="16"
         id="rect169"
         style="color:#bebebe" />
    </clipPath>
    <clipPath
       id="clipPath171">
      <path
         d="m 145,215 c 33.13708,0 60,-26.86292 60,-60 0,-33.13708 -26.86292,-60 -60,-60 -33.13708,0 -60,26.86292 -60,60 0,12.50698 3.8285,24.10633 10.375,33.71875 L 89,211 111.28125,204.625 C 120.89367,211.1715 132.49302,215 145,215 Z"
         id="path173"
         inkscape:connector-curvature="0" />
    </clipPath>
    <clipPath
       id="clipPath175">
      <path
         d="m 152,204 a 8,8 0 1 1 -16,0 8,8 0 1 1 16,0 z"
         id="path177"
         inkscape:connector-curvature="0" />
    </clipPath>
    <clipPath
       id="clipPath179">
      <path
         d="m 98.03125,23.191212 c -41.492132,1.05238 -74.84375,35.06824 -74.84375,76.812498 0,42.40687 34.405632,76.8125 76.8125,76.8125 42.40687,0 76.8125,-34.40563 76.8125,-76.8125 0,-42.406866 -34.40563,-76.812498 -76.8125,-76.812498 -0.662607,0 -1.310145,-0.0167 -1.96875,0 z M 100,50.659962 c 27.24464,0 49.34375,22.099114 49.34375,49.343748 -1e-5,27.24464 -22.09911,49.34375 -49.34375,49.34375 -27.244636,-1e-5 -49.34375,-22.09911 -49.34375,-49.34375 0,-27.244634 22.099114,-49.343748 49.34375,-49.343748 z"
         id="path181"
         inkscape:connector-curvature="0" />
    </clipPath>
    <clipPath
       id="clipPath183">
      <rect
         height="16"
         rx="2"
         y="116"
         x="432"
         width="16"
         id="rect185"
         style="color:#bebebe;opacity:0.2;fill:#6d6d6d" />
    </clipPath>
    <clipPath
       id="clipPath187">
      <rect
         height="240"
         rx="50"
         y="36"
         x="24"
         width="240"
         id="rect189"
         style="color:#bebebe;fill:#986767" />
    </clipPath>
    <clipPath
       id="clipPath191">
      <rect
         transform="matrix(0,1,-1,0,0,0)"
         height="42"
         rx="9"
         y="223"
         x="307"
         width="42"
         id="rect193"
         style="color:#bebebe;fill:url(#3)" />
    </clipPath>
  </defs>
  <path
     d="M 3.2851936,1.3118852e-4 C 3.1507078,-0.00322761 3.0168597,0.05810499 2.9448355,0.17816179 c -0.1047235,0.1745504 -0.0408,0.3977146 0.1405827,0.4984856 0.1814208,0.100848 0.4132313,0.046368 0.5179359,-0.128182 C 3.7081163,0.37383769 3.6442116,0.14368749 3.4627716,0.04285859 3.4060809,0.01136089 3.3463193,0.00165739 3.2851936,1.3118852e-4 Z M 2.3085143,0.38467729 c -0.2623309,0 -0.5123583,0.05883 -0.7325093,0.1637881 L 1.842372,1.0042234 c 0.1418693,-0.06353 0.2993337,-0.0997 0.4661423,-0.0997 0.578883,0 1.0526888,0.43090701 1.1024637,0.97560701 l 0.5401331,-0.0071 C 3.9245082,1.4708544 3.7432806,1.1058594 3.4627716,0.84043539 3.3185541,0.89287539 3.15542,0.88485939 3.0114274,0.80482939 2.867251,0.72472139 2.7772337,0.58829839 2.7524595,0.44164739 2.6122933,0.40431399 2.4610469,0.38467729 2.3085143,0.38467729 Z M 1.3910279,0.65528339 C 1.0590574,0.86874939 0.81288971,1.1917124 0.71031209,1.5739214 c 0.11981311,0.094 0.19977531,0.238322 0.19977531,0.398788 0,0.160428 -0.0799378,0.304809 -0.19977531,0.398789 0.1025575,0.382247 0.34874531,0.705191 0.68071581,0.918637 l 0.2811652,-0.441516 c -0.2848811,-0.192937 -0.4735414,-0.51504 -0.4735414,-0.87591 0,-0.360812 0.1886603,-0.682934 0.4735414,-0.87591 L 1.3910279,0.65528339 Z M 0.37735331,1.6095274 C 0.16780674,1.6095274 0,1.7710324 0,1.9727094 c 0,0.201601 0.16780674,0.363182 0.37735331,0.363182 0.20946607,0 0.37735331,-0.161581 0.37735331,-0.363182 0,-0.201696 -0.16786711,-0.363182 -0.37735331,-0.363182 z M 3.410978,2.0652854 c -0.049736,0.544778 -0.5235807,0.975607 -1.1024637,0.975607 -0.1668287,0 -0.3242537,-0.03616 -0.4661423,-0.0997 l -0.266367,0.455758 c 0.2201708,0.10492 0.4701784,0.163788 0.7325093,0.163788 0.1525323,0 0.3037571,-0.01964 0.4439452,-0.05697 0.024774,-0.146651 0.1147723,-0.283016 0.2589679,-0.363182 0.1439926,-0.07999 0.3071267,-0.08807 0.4513442,-0.03561 0.2804909,-0.265443 0.4617783,-0.630418 0.4883395,-1.032577 L 3.410978,2.0652844 Z m -0.1479817,1.153638 c -0.06113,0.0015 -0.1208985,0.01835 -0.1775781,0.04985 -0.1814443,0.10081 -0.2452878,0.323935 -0.1405827,0.498486 0.1047617,0.174627 0.3364935,0.236113 0.5179361,0.135303 0.181377,-0.10079 0.2453255,-0.323877 0.1405825,-0.498485 -0.071997,-0.120005 -0.2058773,-0.188513 -0.3403578,-0.185154 z"
     id="path199"
     inkscape:connector-curvature="0"
     style="fill:#dd4814;fill-opacity:1"
     inkscape:export-filename="/home/josh/Code/unixporn/resources/Flairs/ubuntu.png"
     inkscape:export-xdpi="90"
     inkscape:export-ydpi="90" />
</svg>

<svg width="15" height="15" version="1.1" viewBox="0 0 4.2333334 4.2333334" xmlns="http://www.w3.org/2000/svg" xmlns:xlink="http://www.w3.org/1999/xlink">
 <path d="m3.2852 1.2906e-4c-0.13449-0.003359-0.26833 0.057974-0.34036 0.17803-0.10472 0.17455-0.0408 0.39771 0.14058 0.49849 0.18142 0.10085 0.41323 0.046368 0.51794-0.12818 0.10476-0.17463 0.040858-0.40478-0.14058-0.50561-0.056691-0.031498-0.11645-0.041201-0.17758-0.042727zm-0.97668 0.38455c-0.26233 0-0.51236 0.05883-0.73251 0.16379l0.26637 0.45576c0.14187-0.06353 0.29933-0.0997 0.46614-0.0997 0.57888 0 1.0527 0.43091 1.1025 0.97561l0.54013-0.0071c-0.026603-0.40218-0.20783-0.76717-0.48834-1.0326-0.14422 0.05244-0.30735 0.044424-0.45134-0.035606-0.14418-0.080108-0.23419-0.21653-0.25897-0.36318-0.14017-0.037333-0.29141-0.05697-0.44395-0.05697zm-0.91749 0.27061c-0.33197 0.21347-0.57814 0.53643-0.68072 0.91864 0.11981 0.094 0.19978 0.23832 0.19978 0.39879 0 0.16043-0.079938 0.30481-0.19978 0.39879 0.10256 0.38225 0.34875 0.70519 0.68072 0.91864l0.28117-0.44152c-0.28488-0.19294-0.47354-0.51504-0.47354-0.87591 0-0.36081 0.18866-0.68293 0.47354-0.87591zm-1.0137 0.95424c-0.20955 0-0.37735 0.1615-0.37735 0.36318 0 0.2016 0.16781 0.36318 0.37735 0.36318 0.20947 0 0.37735-0.16158 0.37735-0.36318 0-0.2017-0.16787-0.36318-0.37735-0.36318zm3.0336 0.45576c-0.049736 0.54478-0.52358 0.97561-1.1025 0.97561-0.16683 0-0.32425-0.03616-0.46614-0.0997l-0.26637 0.45576c0.22017 0.10492 0.47018 0.16379 0.73251 0.16379 0.15253 0 0.30376-0.01964 0.44395-0.05697 0.024774-0.14665 0.11477-0.28302 0.25897-0.36318 0.14399-0.07999 0.30713-0.08807 0.45134-0.03561 0.28049-0.26544 0.46178-0.63042 0.48834-1.0326l-0.54013-0.007115zm-0.14798 1.1536c-0.06113 0.0015-0.1209 0.01835-0.17758 0.04985-0.18144 0.10081-0.24529 0.32394-0.14058 0.49849 0.10476 0.17463 0.33649 0.23611 0.51794 0.1353 0.18138-0.10079 0.24533-0.32388 0.14058-0.49848-0.071997-0.12-0.20588-0.18851-0.34036-0.18515z" style="fill:#dd4814"/>
</svg>
